X: 20962
T: Juchheisa Nach Amerika
R: polka
M: 2/4
K: Gmajor
[|D|"G"GG "D"AA|"G"B>A GG|"C"cc "G"B/A/B/c/|"D"A2 z D|
"D7"cc AA|"G"d>d "Em"e/d/"Am"c/B/|"C"AA "D7"A/G/A/B/|"G"G2 z||

